src/components/content1/pencil.svg

<svg viewBox="0 0 38 36" fill="none" xmlns="http://www.w3.org/2000/svg"><path fill-rule="evenodd" clip-rule="evenodd" d="M36.0449 22.24c-.2288-.0909-.49-.0341-.66.1439l-2.5626 2.6934V9.07935h.003l2.445-2.63982c.225-.24305.2101-.62288-.0332-.84781l-.0006-.00055-.88-.81897 1.2228-1.31991c.2247-.24332.2096-.62287-.0338-.84753l-2.64-2.444824c-.2431-.2249281-.6226-.2103723-.8476.032957l-4.266 4.605947H7.02228c-.00192-1.65606-1.3439-2.99794-3.00009-2.99987h-.59986C1.76614 1.8009.424164 3.14278.422241 4.79884V30.597c0 .3312.268616.5998.600129.5998H10.105l-1.26009 1.5129c-.21176.2549-.17715.6331.07745.8448l2.76664 2.3034c.2546.212.6331.1774.8451-.0772l.0003-.0002 3.0709-3.6892c.2121-.2555.3486-.5655.3936-.8945h10.9943l-3.606 3.7864c-.2282.24-.2186.6198.0215.8481.1115.106.2595.1653.4136.165h11.9998c.3315 0 .6001-.2686.6001-.5998v-12.599c0-.2455-.1494-.4663-.3773-.5575ZM33.982 6.05868l-1.1599 1.25455v-.88241l.7199-.77997.44.40783Zm-2.3598-.09831v-.00852h.0072l1.0313-1.11338-1.7622-1.63025-6.1128 6.60559 1.7622 1.63029 5.0743-5.48373Zm-6.2268 6.05103-1.3801.4026.2947-1.4075 1.0854 1.0049Zm8.8952-8.93508-1.7614-1.62943-.8155.88077 1.7617 1.63107.8152-.88241ZM3.42273 2.99888h.59985c.99427 0 1.80011.80579 1.80011 1.79998V27.6127c-.51635-.3971-1.14889-.6135-1.80011-.6157h-.59985c-.65149.0022-1.28375.2186-1.80011.6157V4.79886c0-.99419.80585-1.79998 1.80011-1.79998ZM4.02258 28.197h-.59985c-.99426 0-1.80011.806-1.80011 1.8h4.20007c0-.994-.80584-1.8-1.80011-1.8Zm10.66072 3.1269-.384.4608-1.8443-1.5352.3834-.4614c.2121-.2546.5903-.2892.8449-.0772.0003 0 .0003.0003.0005.0003l.9221.7657c.2548.2117.2897.5899.078.8448l-.0006.0005v.0017Zm-4.5316 1.6926 1.8446 1.5352 1.5354-1.8447-1.8444-1.5355-1.5356 1.845Zm5.5953-3.0196c-.0997-.1661-.2258-.3147-.3733-.4402l-.922-.7674c-.7641-.636-1.899-.5325-2.5351.2316l-.8141.976H7.02246V5.99879H26.6819l-3.1841 3.44067c-.0456.05135-.0818.11067-.1068.17466-.0071.01731-.0126.03351-.0187.05164-.0022.00686-.0049.01377-.0077.02077-.0043.01119-.0088.0226-.0115.03443l-.7163 3.42444c-.0676.3244.1406.6421.465.7097.0964.02.1961.0162.2903-.0113l3.3602-.9791c.0083-.0026.016-.0064.0236-.0102.0066-.0033.0131-.0066.02-.009.0151-.0055.0308-.0132.047-.0211.0673-.0305.1283-.0736.1799-.1266l4.5997-4.97071V26.3371l-3.486 3.6598H15.747Zm9.475 4.7994h10.0003V24.2972L25.222 34.7963Zm4.0008-1.1998c-.2428 0-.4617-.1461-.5546-.3702-.0928-.2241-.0414-.4822.1302-.6539l4.2001-4.1995c.1123-.1126.265-.1757.4241-.1757.3312 0 .6001.2683.6001.5998v4.1997c0 .3312-.2686.5998-.6001.5998h-4.1998Zm3.5997-1.1999v-2.1515l-2.1517 2.1515h2.1517Zm-10.2002-9.5992h4.1998c.3315 0 .6001.2686.6001.5998 0 .3315-.2686.6001-.5998.6001h-16.8c-.33154 0-.60016-.2686-.60016-.6001 0-.3312.26862-.5998.60016-.5998h4.1998v-6.5995c.0005-.159.0634-.3117.1752-.4249l3.5999-3.5997c.2343-.2342.6142-.2342.8485 0l3.5999 3.5997c.1123.1129.1758.2656.1766.4249v6.5995Zm-2.048-7.1996-2.1516-2.1515-2.1517 2.1515h4.3033Zm-5.1521 1.2h6.0002v5.9997h-6.0002v-5.9997Zm2.3998-7.19927h1.2002v1.19987H17.822V9.59853Zm1.2002 15.59867H17.822v1.1999h1.2002v-1.1999Z" fill="#000"/></svg>

<svg viewBox="0 0 38 36" fill="none" xmlns="http://www.w3.org/2000/svg">
<path fill-rule="evenodd" clip-rule="evenodd" d="M36.0449 22.24C35.8161 22.1491 35.5549 22.2059 35.3849 22.3839L32.8223 25.0773V9.07935H32.8253L35.2703 6.43953C35.4953 6.19648 35.4804 5.81665 35.2371 5.59172L35.2365 5.59117L34.3565 4.7722L35.5793 3.45229C35.804 3.20897 35.7889 2.82942 35.5455 2.60476L32.9055 0.159936C32.6624 -0.0649921 32.2829 -0.0504363 32.0579 0.192893L27.7919 4.79884H7.02228C7.02036 3.14278 5.67838 1.8009 4.02219 1.79897H3.42233C1.76614 1.8009 0.424164 3.14278 0.422241 4.79884V30.597C0.422241 30.9282 0.690857 31.1968 1.02237 31.1968H10.105L8.84491 32.7097C8.63315 32.9646 8.66776 33.3428 8.92236 33.5545L11.689 35.8579C11.9436 36.0699 12.3221 36.0353 12.5341 35.7807L12.5344 35.7805L15.6053 32.0913C15.8174 31.8358 15.9539 31.5258 15.9989 31.1968H26.9932L23.3872 34.9832C23.159 35.2232 23.1686 35.603 23.4087 35.8313C23.5202 35.9373 23.6682 35.9966 23.8223 35.9963H35.8221C36.1536 35.9963 36.4222 35.7277 36.4222 35.3965V22.7975C36.4222 22.552 36.2728 22.3312 36.0449 22.24ZM33.982 6.05868L32.8221 7.31323V6.43082L33.542 5.65085L33.982 6.05868ZM31.6222 5.96037V5.95185H31.6294L32.6607 4.83847L30.8985 3.20822L24.7857 9.81381L26.5479 11.4441L31.6222 5.96037ZM25.3954 12.0114L24.0153 12.414L24.31 11.0065L25.3954 12.0114ZM34.2906 3.07632L32.5292 1.44689L31.7137 2.32766L33.4754 3.95873L34.2906 3.07632ZM3.42273 2.99888H4.02258C5.01685 2.99888 5.82269 3.80467 5.82269 4.79886V27.6127C5.30634 27.2156 4.6738 26.9992 4.02258 26.997H3.42273C2.77124 26.9992 2.13898 27.2156 1.62262 27.6127V4.79886C1.62262 3.80467 2.42847 2.99888 3.42273 2.99888ZM4.02258 28.197H3.42273C2.42847 28.197 1.62262 29.003 1.62262 29.997H5.82269C5.82269 29.003 5.01685 28.197 4.02258 28.197ZM14.6833 31.3239L14.2993 31.7847L12.455 30.2495L12.8384 29.7881C13.0505 29.5335 13.4287 29.4989 13.6833 29.7109C13.6836 29.7109 13.6836 29.7112 13.6838 29.7112L14.6059 30.4769C14.8607 30.6886 14.8956 31.0668 14.6839 31.3217L14.6833 31.3222V31.3239ZM10.1517 33.0165L11.9963 34.5517L13.5317 32.707L11.6873 31.1715L10.1517 33.0165ZM15.747 29.9969C15.6473 29.8308 15.5212 29.6822 15.3737 29.5567L14.4517 28.7893C13.6876 28.1533 12.5527 28.2568 11.9166 29.0209L11.1025 29.9969H7.02246V5.99879H26.6819L23.4978 9.43946C23.4522 9.49081 23.416 9.55013 23.391 9.61412C23.3839 9.63143 23.3784 9.64763 23.3723 9.66576C23.3701 9.67262 23.3674 9.67953 23.3646 9.68653C23.3603 9.69772 23.3558 9.70913 23.3531 9.72096L22.6368 13.1454C22.5692 13.4698 22.7774 13.7875 23.1018 13.8551C23.1982 13.8751 23.2979 13.8713 23.3921 13.8438L26.7523 12.8647C26.7606 12.8621 26.7683 12.8583 26.7759 12.8545C26.7825 12.8512 26.789 12.8479 26.7959 12.8455C26.811 12.84 26.8267 12.8323 26.8429 12.8244C26.9102 12.7939 26.9712 12.7508 27.0228 12.6978L31.6225 7.72709V26.3371L28.1365 29.9969H15.747ZM25.222 34.7963H35.2223V24.2972L25.222 34.7963ZM29.2228 33.5965C28.98 33.5965 28.7611 33.4504 28.6682 33.2263C28.5754 33.0022 28.6268 32.7441 28.7984 32.5724L32.9985 28.3729C33.1108 28.2603 33.2635 28.1972 33.4226 28.1972C33.7538 28.1972 34.0227 28.4655 34.0227 28.797V32.9967C34.0227 33.3279 33.7541 33.5965 33.4226 33.5965H29.2228ZM32.8225 32.3966V30.2451L30.6708 32.3966H32.8225ZM22.6223 22.7974H26.8221C27.1536 22.7974 27.4222 23.066 27.4222 23.3972C27.4222 23.7287 27.1536 23.9973 26.8224 23.9973H10.0224C9.69086 23.9973 9.42224 23.7287 9.42224 23.3972C9.42224 23.066 9.69086 22.7974 10.0224 22.7974H14.2222V16.1979C14.2227 16.0389 14.2856 15.8862 14.3974 15.773L17.9973 12.1733C18.2316 11.9391 18.6115 11.9391 18.8458 12.1733L22.4457 15.773C22.558 15.8859 22.6215 16.0386 22.6223 16.1979V22.7974ZM20.5743 15.5978L18.4227 13.4463L16.271 15.5978H20.5743ZM15.4222 16.7978H21.4224V22.7975H15.4222V16.7978ZM17.822 9.59853H19.0222V10.7984H17.822V9.59853ZM19.0222 25.1972H17.822V26.3971H19.0222V25.1972Z" fill="black"/>
</svg>
